X: 1441
T: Añada Pa Gael
R: waltz
M: 3/4
K: Gmajor
DD|S G3A Bd|B4 A2|c<B-B2 G2|D4 DD|
G3A Bd|B4 c2|d4 B2|A6-|A3A Bc|
d6|B3A G2|c4 G2|F6-|F4 DD|
G3A Bd|B4 BA|B4 BA|HG3D GF/D/|
E3D EG|A3A GA|BD-D4-|D3D GF/D/|
E3D EG|A3A GA|cB-B4-|B3D GF/D/|
E3D EG|A3D FA|BD-D4|E4 D2|
E6-|E6|D6-|D4 DD|
G3A Bd|B4 "^rall."BA|B4 "^rit."BA|HG6||

